build/img/download-arrow.svg

<svg width="20" height="20" viewBox="0 0 20 20" fill="none" xmlns="http://www.w3.org/2000/svg">
<path fill-rule="evenodd" clip-rule="evenodd" d="M9.99993 0.0810547C9.38628 0.0810547 8.88882 0.565071 8.88882 1.16214V13.2054L4.37215 9.07565C3.92495 8.66666 3.22167 8.68784 2.80132 9.12295C2.38097 9.55806 2.40273 10.2423 2.84993 10.6513L9.23882 16.4865L9.28604 16.527C9.48551 16.6917 9.73832 16.7826 9.99993 16.7838C10.2574 16.7808 10.5058 16.691 10.7027 16.5297L10.7499 16.4892L17.1388 10.654C17.586 10.245 17.6078 9.56076 17.1874 9.12565C16.7671 8.69054 16.0638 8.66936 15.6166 9.07835L11.111 13.2054V1.16214C11.111 0.565071 10.6136 0.0810547 9.99993 0.0810547Z" fill="white"/>
<path fill-rule="evenodd" clip-rule="evenodd" d="M18.8193 17.7568H1.18045C0.566797 17.7568 0.0693359 18.2408 0.0693359 18.8379C0.0693359 19.4349 0.566797 19.9189 1.18045 19.9189H18.8193C19.433 19.9189 19.9304 19.4349 19.9304 18.8379C19.9304 18.2408 19.433 17.7568 18.8193 17.7568Z" fill="white"/>
</svg>

<svg width="20" height="20" viewBox="0 0 20 20" fill="none" xmlns="http://www.w3.org/2000/svg"><path fill-rule="evenodd" clip-rule="evenodd" d="M10 .081c-.614 0-1.111.484-1.111 1.081v12.043l-4.517-4.13a1.133 1.133 0 0 0-1.57.048 1.06 1.06 0 0 0 .048 1.528l6.389 5.835.047.041c.2.165.452.256.714.257a1.13 1.13 0 0 0 .703-.254l.047-.04 6.389-5.836a1.06 1.06 0 0 0 .048-1.528 1.133 1.133 0 0 0-1.57-.048l-4.506 4.127V1.162c0-.597-.497-1.08-1.111-1.08zm8.82 17.676H1.18c-.613 0-1.11.484-1.11 1.08 0 .598.497 1.082 1.11 1.082h17.64c.613 0 1.11-.484 1.11-1.081s-.497-1.081-1.11-1.081z" fill="#fff"/></svg>
